;FLAVOR:Marlin
;TIME:1169
;Filament used: 0.398372m
;Layer height: 0.16
;MINX:103.7
;MINY:106.5
;MINZ:0.2
;MAXX:131.3
;MAXY:128.5
;MAXZ:16.68
;Generated with Cura_SteamEngine 4.13.1
M82 ;absolute extrusion mode
; Ender 3 Custom Start G-code
M104 S200 ; Set Extruder temperature
M140 S65 ; Set Heat Bed temperature
M190 S65 ; Wait for Heat Bed temperature
M109 S200 ; Wait for Extruder temperature
G28 ; Home all axes
M117 Purge extruder
G92 E0 ; Reset Extruder
G1 Z2.0 F3000 ; Move Z Axis up little to prevent scratching of Heat Bed
G1 X0.1 Y20 Z0.3 F5000.0 ; Move to start position
G1 X0.1 Y200.0 Z0.3 F1500.0 E15 ; Draw the first line
G1 X0.4 Y200.0 Z0.3 F5000.0 ; Move to side a little
G1 X0.4 Y20 Z0.3 F1500.0 E30 ; Draw the second line
G92 E0 ; Reset Extruder
G1 Z2.0 F3000 ; Move Z Axis up little to prevent scratching of Heat Bed
M117 By your command!
; End of custom start GCode
G92 E0
G92 E0
G1 F2700 E-5
;LAYER_COUNT:87
;LAYER:0
M107
G0 F6000 X106.123 Y108.649 Z0.2
;TYPE:SKIRT
G1 F2700 E0
G1 F600 X106.722 Y108.134 E0.02627
G1 X107.37 Y107.683 E0.05253
G1 X108.061 Y107.299 E0.07883
G1 X108.786 Y106.987 E0.10508
G1 X109.539 Y106.75 E0.13133
G1 X110.313 Y106.591 E0.15761
G1 X111.098 Y106.51 E0.18386
G1 X111.5 Y106.5 E0.19724
G1 X123.5 Y106.5 E0.59636
G1 X124.289 Y106.54 E0.62263
G1 X125.069 Y106.659 E0.64888
G1 X125.834 Y106.857 E0.67516
G1 X126.574 Y107.131 E0.70141
G1 X127.283 Y107.479 E0.72767
G1 X127.954 Y107.897 E0.75397
G1 X128.578 Y108.38 E0.78021
G1 X129.151 Y108.923 E0.80647
G1 X129.666 Y109.522 E0.83274
G1 X130.117 Y110.17 E0.859
G1 X130.501 Y110.861 E0.8853
G1 X130.813 Y111.586 E0.91155
G1 X131.05 Y112.339 E0.9378
G1 X131.209 Y113.113 E0.96408
G1 X131.29 Y113.898 E0.99033
G1 X131.3 Y114.3 E1.00371
G1 X131.3 Y116.05 E1.06191
G1 X131.26 Y116.839 E1.08819
G1 X131.157 Y117.512 E1.11083
G1 X131.209 Y117.763 E1.11936
G1 X131.29 Y118.548 E1.14561
G1 X131.3 Y118.95 E1.15898
G1 X131.3 Y120.7 E1.21719
G1 X131.26 Y121.489 E1.24346
G1 X131.141 Y122.269 E1.2697
G1 X130.943 Y123.034 E1.29599
G1 X130.669 Y123.774 E1.32223
G1 X130.321 Y124.483 E1.3485
G1 X129.903 Y125.154 E1.3748
G1 X129.42 Y125.778 E1.40104
G1 X128.877 Y126.351 E1.4273
G1 X128.278 Y126.866 E1.45357
G1 X127.63 Y127.317 E1.47983
G1 X126.939 Y127.701 E1.50612
G1 X126.214 Y128.013 E1.53237
G1 X125.461 Y128.25 E1.55863
G1 X124.687 Y128.409 E1.58491
G1 X123.902 Y128.49 E1.61116
G1 X123.5 Y128.5 E1.62453
G1 X111.5 Y128.5 E2.02366
G1 X110.711 Y128.46 E2.04993
G1 X109.931 Y128.341 E2.07617
G1 X109.166 Y128.143 E2.10246
G1 X108.426 Y127.869 E2.1287
G1 X107.717 Y127.521 E2.15497
G1 X107.046 Y127.103 E2.18127
G1 X106.422 Y126.62 E2.20751
G1 X105.849 Y126.077 E2.23377
G1 X105.334 Y125.478 E2.26004
G1 X104.883 Y124.83 E2.2863
G1 X104.499 Y124.139 E2.31259
G1 X104.187 Y123.414 E2.33884
G1 X103.95 Y122.661 E2.3651
G1 X103.791 Y121.887 E2.39138
G1 X103.71 Y121.102 E2.41763
G1 X103.7 Y120.7 E2.431
G1 X103.7 Y118.95 E2.48921
G1 X103.74 Y118.161 E2.51548
G1 X103.843 Y117.488 E2.53813
G1 X103.791 Y117.237 E2.54666
G1 X103.71 Y116.452 E2.5729
G1 X103.7 Y116.05 E2.58628
G1 X103.7 Y114.3 E2.64448
G1 X103.74 Y113.511 E2.67076
G1 X103.859 Y112.731 E2.697
G1 X104.057 Y111.966 E2.72328
G1 X104.331 Y111.226 E2.74953
G1 X104.679 Y110.517 E2.7758
G1 X105.097 Y109.846 E2.80209
G1 X105.58 Y109.222 E2.82834
G1 X106.123 Y108.649 E2.85459
G0 F6000 X106.516 Y108.83
G1 F600 X107.111 Y108.342 E2.88019
G1 X107.753 Y107.919 E2.90576
G1 X108.436 Y107.564 E2.93136
G1 X109.151 Y107.283 E2.95691
G1 X109.893 Y107.077 E2.98253
G1 X110.651 Y106.949 E3.00809
G1 X111.5 Y106.9 E3.03638
G1 X123.5 Y106.9 E3.4355
G1 X124.268 Y106.94 E3.46108
G1 X125.028 Y107.059 E3.48666
G1 X125.771 Y107.257 E3.51224
G1 X126.49 Y107.531 E3.53783
G1 X127.176 Y107.878 E3.5634
G1 X127.823 Y108.294 E3.58898
G1 X128.423 Y108.775 E3.61456
G1 X128.97 Y109.316 E3.64015
G1 X129.458 Y109.911 E3.66574
G1 X129.881 Y110.553 E3.69131
G1 X130.236 Y111.236 E3.71692
G1 X130.517 Y111.951 E3.74247
G1 X130.723 Y112.693 E3.76808
G1 X130.851 Y113.451 E3.79365
G1 X130.9 Y114.3 E3.82193
G1 X130.9 Y116.05 E3.88014
G1 X130.86 Y116.818 E3.90572
G1 X130.751 Y117.511 E3.92905
G1 X130.851 Y118.101 E3.94895
G1 X130.9 Y118.95 E3.97724
G1 X130.9 Y120.7 E4.03544
G1 X130.86 Y121.468 E4.06102
G1 X130.741 Y122.228 E4.08661
G1 X130.543 Y122.971 E4.11218
G1 X130.269 Y123.69 E4.13777
G1 X129.922 Y124.376 E4.16334
G1 X129.506 Y125.023 E4.18893
G1 X129.025 Y125.623 E4.2145
G1 X128.484 Y126.17 E4.24009
G1 X127.889 Y126.658 E4.26569
G1 X127.247 Y127.081 E4.29126
G1 X126.564 Y127.436 E4.31686
G1 X125.849 Y127.717 E4.34241
G1 X125.107 Y127.923 E4.36802
G1 X124.349 Y128.051 E4.39359
G1 X123.5 Y128.1 E4.42188
G1 X111.5 Y128.1 E4.821
G1 X110.732 Y128.06 E4.84658
G1 X109.972 Y127.941 E4.87216
G1 X109.229 Y127.743 E4.89774
G1 X108.51 Y127.469 E4.92333
G1 X107.824 Y127.122 E4.9489
G1 X107.177 Y126.706 E4.97448
G1 X106.577 Y126.225 E5.00006
G1 X106.03 Y125.684 E5.02565
G1 X105.542 Y125.089 E5.05124
G1 X105.119 Y124.447 E5.07681
G1 X104.764 Y123.764 E5.10242
G1 X104.483 Y123.049 E5.12797
G1 X104.277 Y122.307 E5.15358
G1 X104.149 Y121.549 E5.17915
G1 X104.1 Y120.7 E5.20743
G1 X104.1 Y118.95 E5.26564
G1 X104.14 Y118.182 E5.29122
G1 X104.249 Y117.489 E5.31455
G1 X104.149 Y116.899 E5.33445
G1 X104.1 Y116.05 E5.36274
G1 X104.1 Y114.3 E5.42094
G1 X104.14 Y113.532 E5.44652
G1 X104.259 Y112.772 E5.47211
G1 X104.457 Y112.029 E5.49768
G1 X104.731 Y111.31 E5.52327
G1 X105.078 Y110.624 E5.54884
G1 X105.494 Y109.977 E5.57443
G1 X105.975 Y109.377 E5.6
G1 X106.516 Y108.83 E5.62559
G0 F6000 X106.908 Y109.016
G1 F600 X107.498 Y108.557 E5.65045
G1 X108.134 Y108.162 E5.67535
G1 X108.808 Y107.838 E5.70023
G1 X109.513 Y107.588 E5.72511
G1 X110.241 Y107.414 E5.75
G1 X110.983 Y107.319 E5.77488
G1 X111.5 Y107.3 E5.79209
G1 X123.5 Y107.3 E6.19121
G1 X124.247 Y107.34 E6.21609
G1 X124.985 Y107.459 E6.24096
G1 X125.707 Y107.657 E6.26586
G1 X126.403 Y107.93 E6.29072
G1 X127.066 Y108.277 E6.31561
G1 X127.689 Y108.692 E6.34051
G1 X128.263 Y109.171 E6.36537
G1 X128.784 Y109.708 E6.39026
G1 X129.243 Y110.298 E6.41512
G1 X129.638 Y110.934 E6.44002
G1 X129.962 Y111.608 E6.4649
G1 X130.212 Y112.313 E6.48978
G1 X130.386 Y113.041 E6.51467
G1 X130.481 Y113.783 E6.53955
G1 X130.5 Y114.3 E6.55676
G1 X130.5 Y116.05 E6.61496
G1 X130.46 Y116.797 E6.63984
G1 X130.344 Y117.516 E6.66407
G1 X130.386 Y117.691 E6.67005
G1 X130.481 Y118.433 E6.69493
G1 X130.5 Y118.95 E6.71214
G1 X130.5 Y120.7 E6.77035
G1 X130.46 Y121.447 E6.79523
G1 X130.341 Y122.185 E6.82009
G1 X130.143 Y122.907 E6.84499
G1 X129.87 Y123.603 E6.86986
G1 X129.523 Y124.266 E6.89475
G1 X129.108 Y124.889 E6.91964
G1 X128.629 Y125.463 E6.94451
G1 X128.092 Y125.984 E6.96939
G1 X127.502 Y126.443 E6.99426
G1 X126.866 Y126.838 E7.01916
G1 X126.192 Y127.162 E7.04403
G1 X125.487 Y127.412 E7.06891
G1 X124.759 Y127.586 E7.09381
G1 X124.017 Y127.681 E7.11869
G1 X123.5 Y127.7 E7.13589
G1 X111.5 Y127.7 E7.53501
G1 X110.753 Y127.66 E7.5599
G1 X110.015 Y127.541 E7.58476
G1 X109.293 Y127.343 E7.60966
G1 X108.597 Y127.07 E7.63453
G1 X107.934 Y126.723 E7.65941
G1 X107.311 Y126.308 E7.68431
G1 X106.737 Y125.829 E7.70918
G1 X106.216 Y125.292 E7.73406
G1 X105.757 Y124.702 E7.75893
G1 X105.362 Y124.066 E7.78383
G1 X105.038 Y123.392 E7.8087
G1 X104.788 Y122.687 E7.83358
G1 X104.614 Y121.959 E7.85847
G1 X104.519 Y121.217 E7.88335
G1 X104.5 Y120.7 E7.90056
G1 X104.5 Y118.95 E7.95877
G1 X104.54 Y118.203 E7.98365
G1 X104.656 Y117.484 E8.00787
G1 X104.614 Y117.309 E8.01386
G1 X104.519 Y116.567 E8.03874
G1 X104.5 Y116.05 E8.05594
G1 X104.5 Y114.3 E8.11415
G1 X104.54 Y113.553 E8.13903
G1 X104.659 Y112.815 E8.16389
G1 X104.857 Y112.093 E8.18879
G1 X105.13 Y111.397 E8.21366
G1 X105.477 Y110.734 E8.23855
G1 X105.892 Y110.111 E8.26345
G1 X106.371 Y109.537 E8.28831
G1 X106.908 Y109.016 E8.3132
G0 F6000 X106.765 Y109.702
G1 F600 X107.299 Y109.209 E8.33737
G1 X107.884 Y108.779 E8.36152
G1 X108.513 Y108.415 E8.38569
G1 X109.178 Y108.122 E8.40986
G1 X109.871 Y107.904 E8.43402
G1 X110.583 Y107.764 E8.45816
G1 X111.5 Y107.7 E8.48873
G1 X123.5 Y107.7 E8.88785
G1 X124.225 Y107.74 E8.912
G1 X124.942 Y107.859 E8.93618
G1 X125.641 Y108.057 E8.96034
G1 X126.314 Y108.33 E8.98449
G1 X126.953 Y108.675 E9.00865
G1 X127.55 Y109.089 E9.03281
G1 X128.098 Y109.565 E9.05695
G1 X128.591 Y110.099 E9.08113
G1 X129.021 Y110.684 E9.10527
G1 X129.385 Y111.313 E9.12945
G1 X129.678 Y111.978 E9.15362
G1 X129.896 Y112.671 E9.17778
G1 X130.036 Y113.383 E9.20191
G1 X130.1 Y114.3 E9.23249
G1 X130.1 Y116.05 E9.29069
G1 X130.06 Y116.775 E9.31484
G1 X129.941 Y117.492 E9.33902
G1 X129.934 Y117.516 E9.33985
G1 X130.036 Y118.033 E9.35737
G1 X130.1 Y118.95 E9.38795
G1 X130.1 Y120.7 E9.44615
G1 X130.06 Y121.425 E9.4703
G1 X129.941 Y122.142 E9.49448
G1 X129.743 Y122.841 E9.51864
G1 X129.47 Y123.514 E9.5428
G1 X129.125 Y124.153 E9.56695
G1 X128.711 Y124.75 E9.59111
G1 X128.235 Y125.298 E9.61526
G1 X127.701 Y125.791 E9.63943
G1 X127.116 Y126.221 E9.66358
G1 X126.487 Y126.585 E9.68775
G1 X125.822 Y126.878 E9.71192
G1 X125.129 Y127.096 E9.73608
G1 X124.417 Y127.236 E9.76021
G1 X123.5 Y127.3 E9.79079
G1 X111.5 Y127.3 E10.18991
G1 X110.775 Y127.26 E10.21406
G1 X110.058 Y127.141 E10.23823
G1 X109.359 Y126.943 E10.2624
G1 X108.686 Y126.67 E10.28655
G1 X108.047 Y126.325 E10.31071
G1 X107.45 Y125.911 E10.33487
G1 X106.902 Y125.435 E10.35901
G1 X106.409 Y124.901 E10.38318
G1 X105.979 Y124.316 E10.40733
G1 X105.615 Y123.687 E10.4315
G1 X105.322 Y123.022 E10.45567
G1 X105.104 Y122.329 E10.47984
G1 X104.964 Y121.617 E10.50397
G1 X104.9 Y120.7 E10.53454
G1 X104.9 Y118.95 E10.59275
G1 X104.94 Y118.225 E10.6169
G1 X105.059 Y117.508 E10.64107
G1 X105.066 Y117.484 E10.64191
G1 X104.964 Y116.967 E10.65943
G1 X104.9 Y116.05 E10.69001
G1 X104.9 Y114.3 E10.74821
G1 X104.94 Y113.575 E10.77236
G1 X105.059 Y112.858 E10.79654
G1 X105.257 Y112.159 E10.8207
G1 X105.53 Y111.486 E10.84485
G1 X105.875 Y110.847 E10.86901
G1 X106.289 Y110.25 E10.89317
G1 X106.765 Y109.702 E10.91731
G0 F6000 X107.159 Y109.873
G1 F600 X107.689 Y109.409 E10.94074
G1 X108.268 Y109.009 E10.96415
G1 X108.889 Y108.677 E10.98757
G1 X109.543 Y108.417 E11.01098
G1 X110.223 Y108.233 E11.03441
G1 X110.919 Y108.127 E11.05782
G1 X111.5 Y108.1 E11.07717
G1 X123.5 Y108.1 E11.47629
G1 X124.203 Y108.14 E11.49971
G1 X124.897 Y108.259 E11.52313
G1 X125.572 Y108.457 E11.54653
G1 X126.221 Y108.729 E11.56993
G1 X126.835 Y109.074 E11.59336
G1 X127.406 Y109.485 E11.61676
G1 X127.927 Y109.959 E11.64018
G1 X128.391 Y110.489 E11.66361
G1 X128.791 Y111.068 E11.68702
G1 X129.123 Y111.689 E11.71044
G1 X129.383 Y112.343 E11.73385
G1 X129.567 Y113.023 E11.75728
G1 X129.673 Y113.719 E11.78069
G1 X129.7 Y114.3 E11.80004
G1 X129.7 Y116.05 E11.85824
G1 X129.66 Y116.753 E11.88166
G1 X129.541 Y117.447 E11.90508
G1 X129.567 Y117.673 E11.91265
G1 X129.673 Y118.369 E11.93606
G1 X129.7 Y118.95 E11.95541
G1 X129.7 Y120.7 E12.01361
G1 X129.66 Y121.403 E12.03703
G1 X129.541 Y122.097 E12.06045
G1 X129.343 Y122.772 E12.08385
G1 X129.071 Y123.421 E12.10726
G1 X128.726 Y124.035 E12.13068
G1 X128.315 Y124.606 E12.15408
G1 X127.841 Y125.127 E12.17751
G1 X127.311 Y125.591 E12.20094
G1 X126.732 Y125.991 E12.22434
G1 X126.111 Y126.323 E12.24776
G1 X125.457 Y126.583 E12.27117
G1 X124.777 Y126.767 E12.2946
G1 X124.081 Y126.873 E12.31802
G1 X123.5 Y126.9 E12.33736
G1 X111.5 Y126.9 E12.73648
G1 X110.797 Y126.86 E12.7599
G1 X110.103 Y126.741 E12.78332
G1 X109.428 Y126.543 E12.80672
G1 X108.779 Y126.271 E12.83012
G1 X108.165 Y125.926 E12.85355
G1 X107.594 Y125.515 E12.87695
G1 X107.073 Y125.041 E12.90038
G1 X106.609 Y124.511 E12.9238
G1 X106.209 Y123.932 E12.94721
G1 X105.877 Y123.311 E12.97063
G1 X105.617 Y122.657 E12.99404
G1 X105.433 Y121.977 E13.01747
G1 X105.327 Y121.281 E13.04089
G1 X105.3 Y120.7 E13.06023
G1 X105.3 Y118.95 E13.11844
G1 X105.34 Y118.247 E13.14186
G1 X105.459 Y117.553 E13.16528
G1 X105.433 Y117.327 E13.17284
G1 X105.327 Y116.631 E13.19626
G1 X105.3 Y116.05 E13.2156
G1 X105.3 Y114.3 E13.27381
G1 X105.34 Y113.597 E13.29723
G1 X105.459 Y112.903 E13.32065
G1 X105.657 Y112.228 E13.34404
G1 X105.929 Y111.579 E13.36745
G1 X106.274 Y110.965 E13.39087
G1 X106.685 Y110.394 E13.41427
G1 X107.159 Y109.873 E13.4377
G0 F6000 X107.553 Y110.051
G1 F600 X108.078 Y109.617 E13.46036
G1 X108.65 Y109.248 E13.483
G1 X109.262 Y108.949 E13.50565
G1 X109.904 Y108.724 E13.52828
G1 X110.569 Y108.575 E13.55094
G1 X111.5 Y108.5 E13.58201
G1 X123.5 Y108.5 E13.98113
G1 X124.18 Y108.54 E14.00379
G1 X124.85 Y108.659 E14.02642
G1 X125.502 Y108.856 E14.04907
G1 X126.126 Y109.128 E14.07171
G1 X126.714 Y109.472 E14.09437
G1 X127.258 Y109.882 E14.11703
G1 X127.749 Y110.353 E14.13966
G1 X128.183 Y110.878 E14.16231
G1 X128.552 Y111.45 E14.18495
G1 X128.851 Y112.062 E14.20761
G1 X129.076 Y112.704 E14.23023
G1 X129.225 Y113.369 E14.2529
G1 X129.3 Y114.3 E14.28397
G1 X129.3 Y116.05 E14.34217
G1 X129.26 Y116.73 E14.36483
G1 X129.141 Y117.4 E14.38746
G1 X129.11 Y117.504 E14.39107
G1 X129.225 Y118.019 E14.40862
G1 X129.3 Y118.95 E14.43969
G1 X129.3 Y120.7 E14.49789
G1 X129.26 Y121.38 E14.52055
G1 X129.141 Y122.05 E14.54318
G1 X128.944 Y122.702 E14.56583
G1 X128.672 Y123.326 E14.58847
G1 X128.328 Y123.914 E14.61113
G1 X127.918 Y124.458 E14.63379
G1 X127.447 Y124.949 E14.65642
G1 X126.922 Y125.383 E14.67907
G1 X126.35 Y125.752 E14.70171
G1 X125.738 Y126.051 E14.72437
G1 X125.096 Y126.276 E14.747
G1 X124.431 Y126.425 E14.76966
G1 X123.5 Y126.5 E14.80073
G1 X111.5 Y126.5 E15.19985
G1 X110.82 Y126.46 E15.22251
G1 X110.15 Y126.341 E15.24514
G1 X109.498 Y126.144 E15.26779
G1 X108.874 Y125.872 E15.29043
G1 X108.286 Y125.528 E15.31309
G1 X107.742 Y125.118 E15.33575
G1 X107.251 Y124.647 E15.35838
G1 X106.817 Y124.122 E15.38103
G1 X106.448 Y123.55 E15.40367
G1 X106.149 Y122.938 E15.42633
G1 X105.924 Y122.296 E15.44895
G1 X105.775 Y121.631 E15.47162
G1 X105.7 Y120.7 E15.50269
G1 X105.7 Y118.95 E15.56089
G1 X105.74 Y118.27 E15.58355
G1 X105.859 Y117.6 E15.60618
G1 X105.89 Y117.496 E15.60979
G1 X105.775 Y116.981 E15.62734
G1 X105.7 Y116.05 E15.65841
G1 X105.7 Y114.3 E15.71661
G1 X105.74 Y113.62 E15.73927
G1 X105.859 Y112.95 E15.7619
G1 X106.056 Y112.298 E15.78455
G1 X106.328 Y111.674 E15.80719
G1 X106.672 Y111.086 E15.82985
G1 X107.082 Y110.542 E15.85251
G1 X107.553 Y110.051 E15.87514
G0 F6000 X107.945 Y110.235
G1 F600 X108.465 Y109.834 E15.89698
G1 X109.029 Y109.498 E15.91881
G1 X109.631 Y109.234 E15.94068
G1 X110.26 Y109.044 E15.96253
G1 X110.907 Y108.933 E15.98437
G1 X111.5 Y108.9 E16.00412
G1 X123.5 Y108.9 E16.40324
G1 X124.156 Y108.94 E16.4251
G1 X124.802 Y109.059 E16.44695
G1 X125.429 Y109.256 E16.46881
G1 X126.027 Y109.528 E16.49066
G1 X126.588 Y109.87 E16.51251
G1 X127.103 Y110.278 E16.53436
G1 X127.565 Y110.745 E16.55621
G1 X127.966 Y111.265 E16.57805
G1 X128.302 Y111.829 E16.59989
G1 X128.566 Y112.431 E16.62175
G1 X128.756 Y113.06 E16.64361
G1 X128.867 Y113.707 E16.66544
G1 X128.9 Y114.3 E16.68519
G1 X128.9 Y116.05 E16.7434
G1 X128.86 Y116.706 E16.76526
G1 X128.741 Y117.352 E16.7871
G1 X128.694 Y117.503 E16.79236
G1 X128.756 Y117.71 E16.79955
G1 X128.867 Y118.357 E16.82139
G1 X128.9 Y118.95 E16.84114
G1 X128.9 Y120.7 E16.89934
G1 X128.86 Y121.356 E16.9212
G1 X128.741 Y122.002 E16.94305
G1 X128.544 Y122.629 E16.96491
G1 X128.272 Y123.227 E16.98676
G1 X127.93 Y123.788 E17.00861
G1 X127.522 Y124.303 E17.03047
G1 X127.055 Y124.765 E17.05232
G1 X126.535 Y125.166 E17.07416
G1 X125.971 Y125.502 E17.09599
G1 X125.369 Y125.766 E17.11785
G1 X124.74 Y125.956 E17.13971
G1 X124.093 Y126.067 E17.16154
G1 X123.5 Y126.1 E17.1813
G1 X111.5 Y126.1 E17.58042
G1 X110.844 Y126.06 E17.60228
G1 X110.198 Y125.941 E17.62412
G1 X109.571 Y125.744 E17.64598
G1 X108.973 Y125.472 E17.66783
G1 X108.412 Y125.13 E17.68969
G1 X107.897 Y124.722 E17.71154
G1 X107.435 Y124.255 E17.73339
G1 X107.034 Y123.735 E17.75523
G1 X106.698 Y123.171 E17.77706
G1 X106.434 Y122.569 E17.79893
G1 X106.244 Y121.94 E17.82078
G1 X106.133 Y121.293 E17.84262
G1 X106.1 Y120.7 E17.86237
G1 X106.1 Y118.95 E17.92058
G1 X106.14 Y118.294 E17.94243
G1 X106.259 Y117.648 E17.96428
G1 X106.306 Y117.497 E17.96954
