;FLAVOR:Marlin
;TIME:4985
;Filament used: 2.8188m
;Layer height: 0.16
;MINX:84
;MINY:78
;MINZ:0.2
;MAXX:135.5
;MAXY:157
;MAXZ:9.84
;Generated with Cura_SteamEngine 4.13.1
M82 ;absolute extrusion mode
; Ender 3 Custom Start G-code
M104 S200 ; Set Extruder temperature
M140 S65 ; Set Heat Bed temperature
M190 S65 ; Wait for Heat Bed temperature
M109 S200 ; Wait for Extruder temperature
G28 ; Home all axes
M117 Purge extruder
G92 E0 ; Reset Extruder
G1 Z2.0 F3000 ; Move Z Axis up little to prevent scratching of Heat Bed
G1 X0.1 Y20 Z0.3 F5000.0 ; Move to start position
G1 X0.1 Y200.0 Z0.3 F1500.0 E15 ; Draw the first line
G1 X0.4 Y200.0 Z0.3 F5000.0 ; Move to side a little
G1 X0.4 Y20 Z0.3 F1500.0 E30 ; Draw the second line
G92 E0 ; Reset Extruder
G1 Z2.0 F3000 ; Move Z Axis up little to prevent scratching of Heat Bed
M117 By your command!
; End of custom start GCode
G92 E0
G92 E0
G1 F2700 E-5
;LAYER_COUNT:59
;LAYER:0
M107
G0 F6000 X87.198 Y81.264 Z0.2
;TYPE:SKIRT
G1 F2700 E0
G1 F1200 X87.886 Y80.627 E0.03119
G1 X88.626 Y80.051 E0.06237
G1 X89.412 Y79.539 E0.09357
G1 X90.239 Y79.097 E0.12476
G1 X91.101 Y78.727 E0.15596
G1 X91.991 Y78.431 E0.18716
G1 X92.903 Y78.213 E0.21835
G1 X93.83 Y78.072 E0.24953
G1 X94.701 Y78.013 E0.27857
G1 X95.022 Y78.004 E0.28925
G1 X95.33 Y78 E0.29949
G1 X108.766 Y78 E0.74638
G1 X110.174 Y78.005 E0.79321
G1 X110.845 Y78 E0.81553
G1 X123.951 Y78.001 E1.25143
G1 X124.649 Y78.011 E1.27465
G1 X125.585 Y78.065 E1.30583
G1 X126.513 Y78.197 E1.33701
G1 X127.427 Y78.409 E1.36822
G1 X128.319 Y78.698 E1.3994
G1 X129.184 Y79.061 E1.4306
G1 X130.014 Y79.497 E1.46179
G1 X130.805 Y80.002 E1.493
G1 X131.549 Y80.573 E1.52419
G1 X132.242 Y81.205 E1.55539
G1 X132.879 Y81.893 E1.58657
G1 X133.454 Y82.634 E1.61777
G1 X133.965 Y83.42 E1.64895
G1 X134.407 Y84.248 E1.68017
G1 X134.776 Y85.11 E1.71136
G1 X135.071 Y86 E1.74254
G1 X135.289 Y86.912 E1.77373
G1 X135.429 Y87.84 E1.80494
G1 X135.487 Y88.701 E1.83365
G1 X135.496 Y89.021 E1.84429
G1 X135.5 Y89.33 E1.85457
G1 X135.499 Y145.4 E3.71947
G1 X135.49 Y146.127 E3.74365
G1 X135.439 Y147.064 E3.77486
G1 X135.307 Y147.992 E3.80604
G1 X135.098 Y148.906 E3.83722
G1 X134.811 Y149.799 E3.86842
G1 X134.449 Y150.665 E3.89964
G1 X134.015 Y151.496 E3.93082
G1 X133.511 Y152.287 E3.96201
G1 X132.942 Y153.032 E3.99319
G1 X132.311 Y153.727 E4.02441
G1 X131.624 Y154.365 E4.0556
G1 X130.885 Y154.942 E4.08678
G1 X130.099 Y155.454 E4.11798
G1 X129.273 Y155.897 E4.14916
G1 X128.411 Y156.269 E4.18038
G1 X127.522 Y156.565 E4.21155
G1 X126.61 Y156.785 E4.24275
G1 X125.683 Y156.926 E4.27394
G1 X124.799 Y156.987 E4.30341
G1 X124.478 Y156.996 E4.31409
G1 X124.17 Y157 E4.32433
G1 X110.734 Y157 E4.77122
G1 X109.326 Y156.995 E4.81805
G1 X108.655 Y157 E4.84037
G1 X95.565 Y156.999 E5.27574
G1 X94.867 Y156.99 E5.29896
G1 X93.931 Y156.938 E5.33014
G1 X93.002 Y156.806 E5.36135
G1 X92.088 Y156.596 E5.39254
G1 X91.195 Y156.309 E5.42374
G1 X90.33 Y155.946 E5.45494
G1 X89.499 Y155.512 E5.48612
G1 X88.708 Y155.008 E5.51731
G1 X87.963 Y154.438 E5.54851
G1 X87.269 Y153.807 E5.57971
G1 X86.632 Y153.12 E5.61087
G1 X86.055 Y152.38 E5.64208
G1 X85.543 Y151.594 E5.67328
G1 X85.1 Y150.767 E5.70448
G1 X84.729 Y149.906 E5.73567
G1 X84.433 Y149.016 E5.76686
G1 X84.214 Y148.104 E5.79806
G1 X84.073 Y147.177 E5.82925
G1 X84.013 Y146.288 E5.85888
G1 X84.004 Y145.955 E5.86996
G1 X84 Y145.658 E5.87984
G1 X84.001 Y89.525 E7.74683
G1 X84.01 Y88.86 E7.76895
G1 X84.063 Y87.924 E7.80013
G1 X84.195 Y86.995 E7.83134
G1 X84.406 Y86.081 E7.86254
G1 X84.694 Y85.189 E7.89372
G1 X85.057 Y84.324 E7.92492
G1 X85.492 Y83.493 E7.95611
G1 X85.996 Y82.703 E7.98728
G1 X86.566 Y81.958 E8.01848
G1 X87.198 Y81.264 E8.0497
G0 F6000 X87.589 Y81.439
G1 F1200 X88.274 Y80.823 E8.08034
G1 X89.01 Y80.27 E8.11096
G1 X89.791 Y79.782 E8.14159
G1 X90.611 Y79.364 E8.1722
G1 X91.465 Y79.019 E8.20284
G1 X92.345 Y78.749 E8.23345
G1 X93.245 Y78.557 E8.26406
G1 X94.159 Y78.443 E8.2947
G1 X94.712 Y78.413 E8.31312
G1 X95.033 Y78.404 E8.3238
G1 X95.33 Y78.4 E8.33368
G1 X108.765 Y78.4 E8.78053
G1 X110.176 Y78.405 E8.82746
G1 X110.848 Y78.4 E8.84981
G1 X123.945 Y78.401 E9.28542
G1 X124.643 Y78.411 E9.30863
G1 X125.562 Y78.464 E9.33925
G1 X126.473 Y78.597 E9.36987
G1 X127.369 Y78.808 E9.40049
G1 X128.243 Y79.096 E9.43109
G1 X129.09 Y79.459 E9.46174
G1 X129.901 Y79.894 E9.49235
G1 X130.671 Y80.398 E9.52296
G1 X131.395 Y80.967 E9.55359
G1 X132.067 Y81.597 E9.58423
G1 X132.682 Y82.282 E9.61484
G1 X133.235 Y83.018 E9.64546
G1 X133.722 Y83.799 E9.67608
G1 X134.139 Y84.62 E9.7067
G1 X134.484 Y85.474 E9.73734
G1 X134.753 Y86.354 E9.76794
G1 X134.945 Y87.255 E9.79858
G1 X135.058 Y88.168 E9.82918
G1 X135.087 Y88.712 E9.8473
G1 X135.096 Y89.032 E9.85795
G1 X135.1 Y89.33 E9.86786
G1 X135.099 Y145.395 E11.73259
G1 X135.09 Y146.122 E11.75677
G1 X135.039 Y147.041 E11.78739
G1 X134.908 Y147.953 E11.81803
G1 X134.698 Y148.849 E11.84864
G1 X134.412 Y149.724 E11.87926
G1 X134.051 Y150.571 E11.90988
G1 X133.617 Y151.383 E11.9405
G1 X133.115 Y152.155 E11.97113
G1 X132.547 Y152.88 E12.00176
G1 X131.919 Y153.553 E12.03238
G1 X131.235 Y154.169 E12.06299
G1 X130.5 Y154.723 E12.09361
G1 X129.72 Y155.212 E12.12423
G1 X128.9 Y155.631 E12.15485
G1 X128.047 Y155.977 E12.18547
G1 X127.167 Y156.248 E12.2161
G1 X126.267 Y156.441 E12.24671
G1 X125.353 Y156.556 E12.27735
G1 X124.788 Y156.587 E12.29617
G1 X124.467 Y156.596 E12.30685
G1 X124.17 Y156.6 E12.31673
G1 X110.735 Y156.6 E12.76358
G1 X109.324 Y156.595 E12.81051
G1 X108.652 Y156.6 E12.83286
G1 X95.57 Y156.599 E13.26797
G1 X94.872 Y156.59 E13.29119
G1 X93.953 Y156.538 E13.3218
G1 X93.042 Y156.407 E13.35241
G1 X92.146 Y156.197 E13.38302
G1 X91.271 Y155.91 E13.41365
G1 X90.424 Y155.548 E13.44429
G1 X89.612 Y155.114 E13.47491
G1 X88.841 Y154.612 E13.50551
G1 X88.116 Y154.044 E13.53614
G1 X87.443 Y153.415 E13.56678
G1 X86.828 Y152.731 E13.59738
G1 X86.274 Y151.996 E13.62799
G1 X85.786 Y151.215 E13.65862
G1 X85.367 Y150.395 E13.68925
G1 X85.021 Y149.542 E13.71986
G1 X84.751 Y148.662 E13.75048
G1 X84.558 Y147.761 E13.78113
G1 X84.444 Y146.848 E13.81173
G1 X84.413 Y146.277 E13.83075
G1 X84.404 Y145.944 E13.84183
G1 X84.4 Y145.658 E13.85134
G1 X84.401 Y89.531 E15.71813
G1 X84.41 Y88.866 E15.74025
G1 X84.462 Y87.946 E15.7709
G1 X84.594 Y87.035 E15.80152
G1 X84.805 Y86.139 E15.83213
G1 X85.092 Y85.264 E15.86276
G1 X85.455 Y84.418 E15.89338
G1 X85.889 Y83.606 E15.924
G1 X86.392 Y82.835 E15.95462
G1 X86.961 Y82.111 E15.98525
G1 X87.589 Y81.439 E16.01584
G0 F6000 X87.981 Y81.617
G1 F1200 X88.662 Y81.024 E16.04587
G1 X89.394 Y80.494 E16.07593
G1 X90.169 Y80.031 E16.10596
G1 X90.982 Y79.638 E16.13599
G1 X91.827 Y79.318 E16.16604
G1 X92.696 Y79.075 E16.19606
G1 X93.584 Y78.909 E16.2261
G1 X94.723 Y78.813 E16.26412
G1 X95.044 Y78.804 E16.2748
G1 X95.33 Y78.8 E16.28431
G1 X108.763 Y78.8 E16.7311
G1 X110.177 Y78.805 E16.77813
G1 X110.851 Y78.8 E16.80055
G1 X123.939 Y78.801 E17.23585
G1 X124.637 Y78.811 E17.25907
G1 X125.539 Y78.864 E17.28912
G1 X126.432 Y78.996 E17.31915
G1 X127.31 Y79.207 E17.34918
G1 X128.166 Y79.495 E17.37922
G1 X128.993 Y79.857 E17.40925
G1 X129.785 Y80.292 E17.4393
G1 X130.536 Y80.794 E17.46935
G1 X131.239 Y81.361 E17.49939
G1 X131.889 Y81.988 E17.52942
G1 X132.481 Y82.67 E17.55946
G1 X133.011 Y83.401 E17.58949
G1 X133.473 Y84.177 E17.61953
G1 X133.866 Y84.99 E17.64956
G1 X134.184 Y85.835 E17.67959
G1 X134.427 Y86.705 E17.70964
G1 X134.592 Y87.593 E17.73968
G1 X134.687 Y88.723 E17.77739
G1 X134.696 Y89.043 E17.78804
G1 X134.7 Y89.33 E17.79759
G1 X134.699 Y145.39 E19.66215
G1 X134.69 Y146.117 E19.68633
G1 X134.639 Y147.019 E19.71638
G1 X134.508 Y147.913 E19.74643
G1 X134.299 Y148.791 E19.77645
G1 X134.013 Y149.648 E19.8065
G1 X133.652 Y150.476 E19.83654
G1 X133.22 Y151.268 E19.86655
G1 X132.719 Y152.02 E19.8966
G1 X132.153 Y152.724 E19.92665
G1 X131.528 Y153.375 E19.95666
G1 X130.847 Y153.969 E19.98672
G1 X130.116 Y154.5 E20.01677
G1 X129.342 Y154.964 E20.04679
G1 X128.529 Y155.358 E20.07683
G1 X127.685 Y155.678 E20.10686
G1 X126.815 Y155.923 E20.13692
G1 X125.928 Y156.089 E20.16693
G1 X124.777 Y156.187 E20.20535
G1 X124.456 Y156.196 E20.21603
G1 X124.17 Y156.2 E20.22555
G1 X110.737 Y156.2 E20.67233
G1 X109.323 Y156.195 E20.71936
G1 X108.649 Y156.2 E20.74178
G1 X95.575 Y156.199 E21.17662
G1 X94.877 Y156.19 E21.19984
G1 X93.976 Y156.139 E21.22985
G1 X93.082 Y156.007 E21.25991
G1 X92.204 Y155.798 E21.28993
G1 X91.347 Y155.511 E21.31999
G1 X90.52 Y155.15 E21.35
G1 X89.727 Y154.717 E21.38005
G1 X88.976 Y154.216 E21.41008
G1 X88.272 Y153.65 E21.44012
G1 X87.621 Y153.024 E21.47016
G1 X87.028 Y152.343 E21.5002
G1 X86.498 Y151.612 E21.53023
G1 X86.034 Y150.837 E21.56027
G1 X85.64 Y150.024 E21.59032
G1 X85.32 Y149.18 E21.62034
G1 X85.076 Y148.31 E21.65039
G1 X84.91 Y147.422 E21.68044
G1 X84.813 Y146.267 E21.71899
G1 X84.804 Y145.934 E21.73007
G1 X84.8 Y145.658 E21.73925
G1 X84.801 Y89.536 E23.60588
G1 X84.81 Y88.871 E23.628
G1 X84.862 Y87.969 E23.65805
G1 X84.994 Y87.076 E23.68807
G1 X85.204 Y86.198 E23.7181
G1 X85.491 Y85.341 E23.74816
G1 X85.853 Y84.514 E23.77818
G1 X86.286 Y83.722 E23.8082
G1 X86.788 Y82.971 E23.83825
G1 X87.355 Y82.267 E23.86831
G1 X87.981 Y81.617 E23.89833
G1 F2700 E18.89833
;MESH:SMPS case - stopa.stl(1)
G0 F6000 X99.527 Y94.076
G0 X98.145 Y92.827
G0 X98.269 Y94.682
G0 X98.492 Y95.369
G0 X98.707 Y95.665
G0 X99.037 Y95.905
G0 X100.477 Y96.756
;TYPE:WALL-INNER
G1 F2700 E23.89833
G1 F1200 X100.939 Y96.605 E23.91449
G1 X101.354 Y96.364 E23.93046
G1 X101.712 Y96.044 E23.94643
G1 X101.998 Y95.651 E23.96259
G1 X102.19 Y95.212 E23.97853
G1 X102.292 Y94.743 E23.99449
G1 X102.292 Y94.257 E24.01066
G1 X102.19 Y93.788 E24.02662
G1 X101.998 Y93.349 E24.04256
G1 X101.712 Y92.956 E24.05872
G1 X101.354 Y92.636 E24.07469
G1 X100.939 Y92.395 E24.09066
G1 X100.477 Y92.244 E24.10682
G1 X100.01 Y92.197 E24.12243
G1 X99.525 Y92.244 E24.13864
G1 X99.061 Y92.395 E24.15487
G1 X98.646 Y92.636 E24.17083
G1 X98.288 Y92.956 E24.1868
G1 X98.002 Y93.349 E24.20297
G1 X97.81 Y93.788 E24.2189
G1 X97.708 Y94.257 E24.23487
G1 X97.708 Y94.743 E24.25103
G1 X97.81 Y95.212 E24.267
G1 X98.002 Y95.651 E24.28293
G1 X98.288 Y96.044 E24.2991
G1 X98.646 Y96.364 E24.31507
G1 X99.061 Y96.605 E24.33103
G1 X99.523 Y96.756 E24.3472
G1 X100 Y96.804 E24.36314
G1 X100.477 Y96.756 E24.37909
G0 F6000 X100.394 Y96.362
G1 F1200 X100.775 Y96.238 E24.39241
G1 X101.118 Y96.039 E24.4056
G1 X101.414 Y95.774 E24.41882
G1 X101.649 Y95.451 E24.4321
G1 X101.808 Y95.088 E24.44528
G1 X101.892 Y94.7 E24.45849
G1 X101.892 Y94.3 E24.47179
G1 X101.808 Y93.912 E24.485
G1 X101.649 Y93.549 E24.49818
G1 X101.414 Y93.226 E24.51146
G1 X101.118 Y92.961 E24.52468
G1 X100.775 Y92.762 E24.53786
G1 X100.394 Y92.638 E24.55119
G1 X100.009 Y92.599 E24.56406
G1 X99.607 Y92.638 E24.5775
G1 X99.225 Y92.762 E24.59085
G1 X98.882 Y92.961 E24.60404
G1 X98.586 Y93.226 E24.61726
G1 X98.351 Y93.549 E24.63054
G1 X98.192 Y93.912 E24.64372
G1 X98.108 Y94.3 E24.65693
G1 X98.108 Y94.7 E24.67023
G1 X98.192 Y95.088 E24.68343
G1 X98.351 Y95.451 E24.69662
G1 X98.586 Y95.774 E24.7099
G1 X98.882 Y96.039 E24.72311
G1 X99.225 Y96.238 E24.7363
G1 X99.606 Y96.362 E24.74963
G1 X100 Y96.402 E24.7628
G1 X100.394 Y96.362 E24.77597
G0 F6000 X100.311 Y95.968
;TYPE:WALL-OUTER
G1 F1200 X100.611 Y95.871 E24.78646
G1 X100.881 Y95.714 E24.79685
G1 X101.115 Y95.504 E24.80731
G1 X101.3 Y95.25 E24.81776
G1 X101.426 Y94.964 E24.82815
G1 X101.492 Y94.657 E24.8386
G1 X101.492 Y94.343 E24.84904
G1 X101.426 Y94.036 E24.85948
G1 X101.3 Y93.75 E24.86988
G1 X101.115 Y93.496 E24.88033
G1 X100.881 Y93.286 E24.89079
G1 X100.611 Y93.129 E24.90118
G1 X100.311 Y93.032 E24.91166
G1 X100.008 Y93.001 E24.92179
G1 X99.689 Y93.032 E24.93245
G1 X99.389 Y93.129 E24.94294
G1 X99.119 Y93.286 E24.95333
G1 X98.885 Y93.496 E24.96379
G1 X98.7 Y93.75 E24.97424
G1 X98.574 Y94.036 E24.98463
G1 X98.508 Y94.343 E24.99508
G1 X98.508 Y94.657 E25.00552
G1 X98.574 Y94.964 E25.01596
G1 X98.7 Y95.25 E25.02636
G1 X98.885 Y95.504 E25.03681
G1 X99.119 Y95.714 E25.04727
G1 X99.389 Y95.871 E25.05765
G1 X99.689 Y95.968 E25.06814
G1 X100 Y96 E25.07854
G1 X100.311 Y95.968 E25.08894
G0 F6000 X100.401 Y96.398
G1 F2700 E20.08894
G0 F6000 X100 Y96.995
G0 X100 Y95.134
G0 X100 Y139.866
G0 X100 Y138.005
G0 X101.293 Y139.335
G0 X101.655 Y139.962
G0 X101.731 Y140.682
G0 X101.531 Y141.3
G0 X100.475 Y142.756
;TYPE:WALL-INNER
G1 F2700 E25.08894
G1 F1200 X100.939 Y142.605 E25.10517
G1 X101.354 Y142.364 E25.12113
G1 X101.712 Y142.044 E25.1371
G1 X101.998 Y141.651 E25.15327
G1 X102.19 Y141.212 E25.1692
G1 X102.292 Y140.743 E25.18517
G1 X102.292 Y140.257 E25.20133
G1 X102.19 Y139.788 E25.21729
G1 X101.998 Y139.349 E25.23323
G1 X101.712 Y138.956 E25.2494
G1 X101.354 Y138.636 E25.26537
G1 X100.939 Y138.395 E25.28133
G1 X100.477 Y138.244 E25.2975
G1 X100 Y138.196 E25.31344
G1 X99.523 Y138.244 E25.32939
G1 X99.061 Y138.395 E25.34555
G1 X98.646 Y138.636 E25.36151
G1 X98.288 Y138.956 E25.37748
G1 X98.002 Y139.349 E25.39365
G1 X97.81 Y139.788 E25.40959
G1 X97.708 Y140.257 E25.42555
G1 X97.708 Y140.743 E25.44171
G1 X97.81 Y141.212 E25.45768
G1 X98.002 Y141.651 E25.47361
G1 X98.288 Y142.044 E25.48978
G1 X98.646 Y142.364 E25.50575
G1 X99.061 Y142.605 E25.52171
G1 X99.523 Y142.756 E25.53788
G1 X99.99 Y142.803 E25.55349
G1 X100.475 Y142.756 E25.5697
G0 F6000 X100.393 Y142.362
G1 F1200 X100.775 Y142.238 E25.58305
G1 X101.118 Y142.039 E25.59624
G1 X101.414 Y141.774 E25.60946
G1 X101.649 Y141.451 E25.62274
G1 X101.808 Y141.088 E25.63592
G1 X101.892 Y140.7 E25.64913
G1 X101.892 Y140.3 E25.66243
G1 X101.808 Y139.912 E25.67564
G1 X101.649 Y139.549 E25.68882
G1 X101.414 Y139.226 E25.7021
G1 X101.118 Y138.961 E25.71532
G1 X100.775 Y138.762 E25.72851
G1 X100.394 Y138.638 E25.74183
G1 X100 Y138.598 E25.755
G1 X99.606 Y138.638 E25.76818
G1 X99.225 Y138.762 E25.7815
G1 X98.882 Y138.961 E25.79469
G1 X98.586 Y139.226 E25.80791
G1 X98.351 Y139.549 E25.82119
G1 X98.192 Y139.912 E25.83437
G1 X98.108 Y140.3 E25.84758
G1 X98.108 Y140.7 E25.86088
G1 X98.192 Y141.088 E25.87408
G1 X98.351 Y141.451 E25.88726
G1 X98.586 Y141.774 E25.90055
G1 X98.882 Y142.039 E25.91376
G1 X99.225 Y142.238 E25.92695
G1 X99.606 Y142.362 E25.94028
G1 X99.991 Y142.401 E25.95315
G1 X100.393 Y142.362 E25.96658
G0 F6000 X100.311 Y141.968
;TYPE:WALL-OUTER
G1 F1200 X100.611 Y141.871 E25.97707
G1 X100.881 Y141.714 E25.98746
G1 X101.115 Y141.504 E25.99792
G1 X101.3 Y141.25 E26.00837
G1 X101.426 Y140.964 E26.01876
G1 X101.492 Y140.657 E26.02921
G1 X101.492 Y140.343 E26.03965
G1 X101.426 Y140.036 E26.05009
G1 X101.3 Y139.75 E26.06049
G1 X101.115 Y139.496 E26.07094
G1 X100.881 Y139.286 E26.0814
G1 X100.611 Y139.129 E26.09179
G1 X100.311 Y139.032 E26.10227
G1 X100 Y139 E26.11267
G1 X99.689 Y139.032 E26.12307
G1 X99.389 Y139.129 E26.13356
G1 X99.119 Y139.286 E26.14394
G1 X98.885 Y139.496 E26.1544
G1 X98.7 Y139.75 E26.16485
G1 X98.574 Y140.036 E26.17525
G1 X98.508 Y140.343 E26.18569
G1 X98.508 Y140.657 E26.19613
G1 X98.574 Y140.964 E26.20658
G1 X98.7 Y141.25 E26.21697
G1 X98.885 Y141.504 E26.22743
G1 X99.119 Y141.714 E26.23788
G1 X99.389 Y141.871 E26.24827
G1 X99.689 Y141.968 E26.25876
G1 X99.992 Y141.999 E26.26889
G1 X100.311 Y141.968 E26.27955
G0 F6000 X100.4 Y142.398
G1 F2700 E21.27955
G0 F6000 X101.855 Y142.173
G0 X101.855 Y144.79
G0 X108 Y145
;TYPE:WALL-INNER
G1 F2700 E26.27955
G1 F1200 X96 Y145 E26.67867
G1 X96 Y90 E28.50798
G1 X108 Y90 E28.9071
G1 X108 Y145 E30.73641
G0 F6000 X108.4 Y145.4
G1 F1200 X95.6 Y145.4 E31.16214
G1 X95.6 Y89.6 E33.01805
G1 X108.4 Y89.6 E33.44378
G1 X108.4 Y145.4 E35.2997
G0 F6000 X108.8 Y145.8
;TYPE:WALL-OUTER
G1 F1200 X95.2 Y145.8 E35.75203
G1 X95.2 Y89.2 E37.63456
G1 X108.8 Y89.2 E38.0869
G1 X108.8 Y145.8 E39.96942
G0 F6000 X108.53 Y145.53
G0 X107.89 Y144.61
G0 X107.61 Y144.61
;TYPE:SKIN
G1 F1200 X96.39 Y144.61 E40.3426
G1 X96.39 Y90.39 E42.14596
G1 X107.61 Y90.39 E42.51914
G1 X107.61 Y144.61 E44.32251
G1 F2700 E39.32251
G0 F6000 X107.89 Y144.61
G0 X102.095 Y144.79
G0 X101.467 Y142.519
G0 X102.095 Y141.706
G1 F2700 E44.32251
G0 F6000 X102.339 Y141.846
G1 F1200 X102.563 Y141.333 E44.34112
G1 X102.682 Y140.784 E44.35981
