;FLAVOR:Marlin
;TIME:12171
;Filament used: 8.13904m
;Layer height: 0.16
;MINX:31.5
;MINY:78
;MINZ:0.2
;MAXX:203.5
;MAXY:157
;MAXZ:3
;Generated with Cura_SteamEngine 4.13.1
M82 ;absolute extrusion mode
; Ender 3 Custom Start G-code
M104 S200 ; Set Extruder temperature
M140 S65 ; Set Heat Bed temperature
M190 S65 ; Wait for Heat Bed temperature
M109 S200 ; Wait for Extruder temperature
G28 ; Home all axes
M117 Purge extruder
G92 E0 ; Reset Extruder
G1 Z2.0 F3000 ; Move Z Axis up little to prevent scratching of Heat Bed
G1 X0.1 Y20 Z0.3 F5000.0 ; Move to start position
G1 X0.1 Y200.0 Z0.3 F1500.0 E15 ; Draw the first line
G1 X0.4 Y200.0 Z0.3 F5000.0 ; Move to side a little
G1 X0.4 Y20 Z0.3 F1500.0 E30 ; Draw the second line
G92 E0 ; Reset Extruder
G1 Z2.0 F3000 ; Move Z Axis up little to prevent scratching of Heat Bed
M117 By your command!
; End of custom start GCode
G92 E0
G92 E0
G1 F2700 E-5
;LAYER_COUNT:16
;LAYER:0
M107
G0 F6000 X37.739 Y79.097 Z0.2
;TYPE:SKIRT
G1 F2700 E0
G1 F1200 X38.601 Y78.727 E0.0312
G1 X39.491 Y78.431 E0.0624
G1 X40.403 Y78.213 E0.09358
G1 X41.33 Y78.072 E0.12477
G1 X42.201 Y78.013 E0.15381
G1 X42.522 Y78.004 E0.16449
G1 X42.83 Y78 E0.17473
G1 X191.793 Y78 E5.12926
G1 X192.649 Y78.011 E5.15773
G1 X193.585 Y78.065 E5.18892
G1 X194.513 Y78.197 E5.22009
G1 X195.427 Y78.409 E5.2513
G1 X196.319 Y78.698 E5.28249
G1 X197.184 Y79.061 E5.31369
G1 X198.014 Y79.497 E5.34487
G1 X198.805 Y80.002 E5.37608
G1 X199.549 Y80.573 E5.40728
G1 X200.242 Y81.205 E5.43847
G1 X200.879 Y81.893 E5.46966
G1 X201.454 Y82.634 E5.50085
G1 X201.965 Y83.42 E5.53203
G1 X202.407 Y84.248 E5.56325
G1 X202.776 Y85.11 E5.59444
G1 X203.071 Y86 E5.62562
G1 X203.289 Y86.912 E5.65681
G1 X203.429 Y87.84 E5.68803
G1 X203.487 Y88.701 E5.71673
G1 X203.496 Y89.021 E5.72738
G1 X203.5 Y89.33 E5.73765
G1 X203.499 Y145.4 E7.60255
G1 X203.49 Y146.127 E7.62673
G1 X203.439 Y147.064 E7.65794
G1 X203.307 Y147.992 E7.68912
G1 X203.098 Y148.906 E7.7203
G1 X202.811 Y149.799 E7.7515
G1 X202.449 Y150.665 E7.78272
G1 X202.015 Y151.496 E7.8139
G1 X201.511 Y152.287 E7.8451
G1 X200.942 Y153.032 E7.87627
G1 X200.311 Y153.727 E7.9075
G1 X199.624 Y154.365 E7.93868
G1 X198.885 Y154.942 E7.96986
G1 X198.099 Y155.454 E8.00106
G1 X197.273 Y155.897 E8.03224
G1 X196.411 Y156.269 E8.06346
G1 X195.522 Y156.565 E8.09463
G1 X194.61 Y156.785 E8.12583
G1 X193.683 Y156.926 E8.15702
G1 X192.799 Y156.987 E8.18649
G1 X192.478 Y156.996 E8.19717
G1 X192.17 Y157 E8.20742
G1 X43.065 Y156.999 E13.16667
G1 X42.367 Y156.99 E13.18989
G1 X41.431 Y156.938 E13.22107
G1 X40.502 Y156.806 E13.25227
G1 X39.588 Y156.596 E13.28347
G1 X38.695 Y156.309 E13.31466
G1 X37.83 Y155.946 E13.34586
G1 X36.999 Y155.512 E13.37705
G1 X36.208 Y155.008 E13.40824
G1 X35.463 Y154.438 E13.43944
G1 X34.769 Y153.807 E13.47064
G1 X34.132 Y153.12 E13.5018
G1 X33.555 Y152.38 E13.53301
G1 X33.043 Y151.594 E13.56421
G1 X32.6 Y150.767 E13.59541
G1 X32.229 Y149.906 E13.6266
G1 X31.933 Y149.016 E13.65779
G1 X31.714 Y148.104 E13.68899
G1 X31.573 Y147.177 E13.72017
G1 X31.513 Y146.288 E13.74981
G1 X31.504 Y145.955 E13.76089
G1 X31.5 Y145.658 E13.77077
G1 X31.501 Y89.525 E15.63776
G1 X31.51 Y88.86 E15.65988
G1 X31.563 Y87.924 E15.69106
G1 X31.695 Y86.995 E15.72227
G1 X31.906 Y86.081 E15.75347
G1 X32.194 Y85.189 E15.78464
G1 X32.557 Y84.324 E15.81585
G1 X32.992 Y83.493 E15.84704
G1 X33.496 Y82.703 E15.87821
G1 X34.066 Y81.958 E15.90941
G1 X34.698 Y81.264 E15.94063
G1 X35.386 Y80.627 E15.97181
G1 X36.126 Y80.051 E16.003
G1 X36.912 Y79.539 E16.0342
G1 X37.739 Y79.097 E16.06539
G0 F6000 X38.111 Y79.364
G1 F1200 X38.965 Y79.019 E16.09603
G1 X39.845 Y78.749 E16.12664
G1 X40.745 Y78.557 E16.15725
G1 X41.659 Y78.443 E16.18788
G1 X42.212 Y78.413 E16.2063
G1 X42.533 Y78.404 E16.21698
G1 X42.83 Y78.4 E16.22686
G1 X191.793 Y78.4 E21.18139
G1 X192.643 Y78.411 E21.20967
G1 X193.562 Y78.464 E21.24028
G1 X194.473 Y78.597 E21.2709
G1 X195.369 Y78.808 E21.30152
G1 X196.243 Y79.096 E21.33213
G1 X197.09 Y79.459 E21.36278
G1 X197.901 Y79.894 E21.39339
G1 X198.671 Y80.398 E21.424
G1 X199.395 Y80.967 E21.45462
G1 X200.067 Y81.597 E21.48526
G1 X200.682 Y82.282 E21.51588
G1 X201.235 Y83.018 E21.5465
G1 X201.722 Y83.799 E21.57711
G1 X202.139 Y84.62 E21.60774
G1 X202.484 Y85.474 E21.63837
G1 X202.753 Y86.354 E21.66898
G1 X202.945 Y87.255 E21.69962
G1 X203.058 Y88.168 E21.73022
G1 X203.087 Y88.712 E21.74833
G1 X203.096 Y89.032 E21.75898
G1 X203.1 Y89.33 E21.76889
G1 X203.099 Y145.395 E23.63362
G1 X203.09 Y146.122 E23.65781
G1 X203.039 Y147.041 E23.68842
G1 X202.908 Y147.953 E23.71906
G1 X202.698 Y148.849 E23.74967
G1 X202.412 Y149.724 E23.78029
G1 X202.051 Y150.571 E23.81091
G1 X201.617 Y151.383 E23.84154
G1 X201.115 Y152.155 E23.87216
G1 X200.547 Y152.88 E23.9028
G1 X199.919 Y153.553 E23.93341
G1 X199.235 Y154.169 E23.96403
G1 X198.5 Y154.723 E23.99464
G1 X197.72 Y155.212 E24.02526
G1 X196.9 Y155.631 E24.05589
G1 X196.047 Y155.977 E24.0865
G1 X195.167 Y156.248 E24.11713
G1 X194.267 Y156.441 E24.14774
G1 X193.353 Y156.556 E24.17838
G1 X192.788 Y156.587 E24.1972
G1 X192.467 Y156.596 E24.20788
G1 X192.17 Y156.6 E24.21776
G1 X43.07 Y156.599 E29.17685
G1 X42.372 Y156.59 E29.20007
G1 X41.453 Y156.538 E29.23068
G1 X40.542 Y156.407 E29.26129
G1 X39.646 Y156.197 E29.2919
G1 X38.771 Y155.91 E29.32253
G1 X37.924 Y155.548 E29.35317
G1 X37.112 Y155.114 E29.38379
G1 X36.341 Y154.612 E29.41439
G1 X35.616 Y154.044 E29.44502
G1 X34.943 Y153.415 E29.47566
G1 X34.328 Y152.731 E29.50625
G1 X33.774 Y151.996 E29.53687
G1 X33.286 Y151.215 E29.5675
G1 X32.867 Y150.395 E29.59813
G1 X32.521 Y149.542 E29.62874
G1 X32.251 Y148.662 E29.65936
G1 X32.058 Y147.761 E29.69
G1 X31.944 Y146.848 E29.72061
G1 X31.913 Y146.277 E29.73963
G1 X31.904 Y145.944 E29.75071
G1 X31.9 Y145.658 E29.76022
G1 X31.901 Y89.531 E31.62701
G1 X31.91 Y88.866 E31.64913
G1 X31.962 Y87.946 E31.67978
G1 X32.094 Y87.035 E31.7104
G1 X32.305 Y86.139 E31.74101
G1 X32.592 Y85.264 E31.77164
G1 X32.955 Y84.418 E31.80226
G1 X33.389 Y83.606 E31.83288
G1 X33.892 Y82.835 E31.8635
G1 X34.461 Y82.111 E31.89413
G1 X35.089 Y81.439 E31.92472
G1 X35.774 Y80.823 E31.95536
G1 X36.51 Y80.27 E31.98598
G1 X37.291 Y79.782 E32.01661
G1 X38.111 Y79.364 E32.04722
G0 F6000 X38.482 Y79.638
G1 F1200 X39.327 Y79.318 E32.07727
G1 X40.196 Y79.075 E32.10728
G1 X41.084 Y78.909 E32.13733
G1 X42.223 Y78.813 E32.17535
G1 X42.544 Y78.804 E32.18603
G1 X42.83 Y78.8 E32.19554
G1 X191.793 Y78.8 E37.15007
G1 X192.637 Y78.811 E37.17815
G1 X193.539 Y78.864 E37.2082
G1 X194.432 Y78.996 E37.23822
G1 X195.31 Y79.207 E37.26826
G1 X196.166 Y79.495 E37.2983
G1 X196.993 Y79.857 E37.32832
G1 X197.785 Y80.292 E37.35838
G1 X198.536 Y80.794 E37.38842
G1 X199.239 Y81.361 E37.41846
G1 X199.889 Y81.988 E37.4485
G1 X200.481 Y82.67 E37.47853
G1 X201.011 Y83.401 E37.50857
G1 X201.473 Y84.177 E37.5386
G1 X201.866 Y84.99 E37.56864
G1 X202.184 Y85.835 E37.59867
G1 X202.427 Y86.705 E37.62871
G1 X202.592 Y87.593 E37.65875
G1 X202.687 Y88.723 E37.69647
G1 X202.696 Y89.043 E37.70712
G1 X202.7 Y89.33 E37.71666
G1 X202.699 Y145.39 E39.58122
G1 X202.69 Y146.117 E39.60541
G1 X202.639 Y147.019 E39.63546
G1 X202.508 Y147.913 E39.66551
G1 X202.299 Y148.791 E39.69553
G1 X202.013 Y149.648 E39.72558
G1 X201.652 Y150.476 E39.75562
G1 X201.22 Y151.268 E39.78562
G1 X200.719 Y152.02 E39.81568
G1 X200.153 Y152.724 E39.84572
G1 X199.528 Y153.375 E39.87574
G1 X198.847 Y153.969 E39.90579
G1 X198.116 Y154.5 E39.93584
G1 X197.342 Y154.964 E39.96586
G1 X196.529 Y155.358 E39.99591
G1 X195.685 Y155.678 E40.02593
G1 X194.815 Y155.923 E40.05599
G1 X193.928 Y156.089 E40.08601
G1 X192.777 Y156.187 E40.12443
G1 X192.456 Y156.196 E40.13511
G1 X192.17 Y156.2 E40.14462
G1 X43.075 Y156.199 E45.10354
G1 X42.377 Y156.19 E45.12676
G1 X41.476 Y156.139 E45.15677
G1 X40.582 Y156.007 E45.18683
G1 X39.704 Y155.798 E45.21685
G1 X38.847 Y155.511 E45.24691
G1 X38.02 Y155.15 E45.27692
G1 X37.227 Y154.717 E45.30697
G1 X36.476 Y154.216 E45.337
G1 X35.772 Y153.65 E45.36704
G1 X35.121 Y153.024 E45.39708
G1 X34.528 Y152.343 E45.42712
G1 X33.998 Y151.612 E45.45715
G1 X33.534 Y150.837 E45.48719
G1 X33.14 Y150.024 E45.51724
G1 X32.82 Y149.18 E45.54726
G1 X32.576 Y148.31 E45.57731
G1 X32.41 Y147.422 E45.60736
G1 X32.313 Y146.267 E45.64591
G1 X32.304 Y145.934 E45.65699
G1 X32.3 Y145.658 E45.66617
G1 X32.301 Y89.536 E47.5328
G1 X32.31 Y88.871 E47.55492
G1 X32.362 Y87.969 E47.58497
G1 X32.494 Y87.076 E47.61499
G1 X32.704 Y86.198 E47.64502
G1 X32.991 Y85.341 E47.67508
G1 X33.353 Y84.514 E47.7051
G1 X33.786 Y83.722 E47.73512
G1 X34.288 Y82.971 E47.76517
G1 X34.855 Y82.267 E47.79523
G1 X35.481 Y81.617 E47.82525
G1 X36.162 Y81.024 E47.85528
G1 X36.894 Y80.494 E47.88534
G1 X37.669 Y80.031 E47.91537
G1 X38.482 Y79.638 E47.9454
G1 F2700 E42.9454
;MESH:SMPS case - pokrywka.stl
G0 F6000 X47.213 Y88.335
G0 X47.213 Y90.21
G0 X187.826 Y90.193
G0 X187.955 Y92.777
G0 X188.969 Y93.408
;TYPE:WALL-INNER
G1 F2700 E47.9454
G1 F1200 X189.343 Y93.543 E47.95863
G1 X189.736 Y93.599 E47.97183
G1 X190.133 Y93.571 E47.98507
G1 X190.514 Y93.462 E47.99825
G1 X190.867 Y93.275 E48.01153
G1 X191.17 Y93.019 E48.02473
G1 X191.416 Y92.706 E48.03797
G1 X191.59 Y92.348 E48.05121
G1 X191.685 Y91.963 E48.0644
G1 X191.7 Y91.565 E48.07764
G1 X191.631 Y91.174 E48.09085
G1 X191.482 Y90.805 E48.10408
G1 X191.259 Y90.474 E48.11736
G1 X190.972 Y90.198 E48.1306
G1 X190.635 Y89.987 E48.14383
G1 X190.263 Y89.853 E48.15698
G1 X189.868 Y89.797 E48.17025
G1 X189.471 Y89.825 E48.18348
G1 X189.091 Y89.934 E48.19663
G1 X188.738 Y90.12 E48.2099
G1 X188.434 Y90.377 E48.22314
G1 X188.189 Y90.69 E48.23636
G1 X188.015 Y91.046 E48.24954
G1 X187.919 Y91.431 E48.26274
G1 X187.904 Y91.83 E48.27602
G1 X187.972 Y92.222 E48.28925
G1 X188.122 Y92.591 E48.3025
G1 X188.345 Y92.922 E48.31578
G1 X188.632 Y93.197 E48.329
G1 X188.969 Y93.408 E48.34222
G0 F6000 X189.145 Y93.046
;TYPE:WALL-OUTER
G1 F1200 X189.44 Y93.153 E48.35266
G1 X189.75 Y93.197 E48.36307
G1 X190.063 Y93.175 E48.37351
G1 X190.364 Y93.089 E48.38392
G1 X190.642 Y92.942 E48.39438
G1 X190.881 Y92.74 E48.40479
G1 X191.075 Y92.493 E48.41523
G1 X191.212 Y92.211 E48.42566
G1 X191.287 Y91.907 E48.43608
G1 X191.299 Y91.593 E48.44653
G1 X191.244 Y91.285 E48.45693
G1 X191.127 Y90.994 E48.46736
G1 X190.951 Y90.733 E48.47783
G1 X190.725 Y90.515 E48.48828
G1 X190.459 Y90.349 E48.49871
G1 X190.166 Y90.243 E48.50907
G1 X189.854 Y90.199 E48.51955
G1 X189.541 Y90.221 E48.52999
G1 X189.241 Y90.307 E48.54037
G1 X188.963 Y90.454 E48.55083
G1 X188.723 Y90.656 E48.56126
G1 X188.53 Y90.903 E48.57168
G1 X188.393 Y91.184 E48.58208
G1 X188.317 Y91.488 E48.5925
G1 X188.305 Y91.803 E48.60299
G1 X188.359 Y92.111 E48.61339
G1 X188.477 Y92.402 E48.62383
G1 X188.653 Y92.663 E48.6343
G1 X188.879 Y92.88 E48.64472
G1 X189.145 Y93.046 E48.65515
G0 F6000 X188.953 Y93.441
G1 F2700 E43.65515
G0 F6000 X187.351 Y91.349
G0 X187.826 Y90.193
G0 X47.178 Y90.192
G0 X47.134 Y91.939
G0 X46.263 Y93.275
;TYPE:WALL-INNER
G1 F2700 E48.65515
G1 F1200 X46.567 Y93.019 E48.66837
G1 X46.811 Y92.706 E48.68157
G1 X46.985 Y92.35 E48.69475
G1 X47.081 Y91.965 E48.70795
G1 X47.096 Y91.566 E48.72123
G1 X47.028 Y91.174 E48.73446
G1 X46.878 Y90.805 E48.74771
G1 X46.655 Y90.474 E48.76098
G1 X46.368 Y90.198 E48.77423
G1 X46.03 Y89.987 E48.78748
G1 X45.657 Y89.853 E48.80066
G1 X45.264 Y89.797 E48.81387
G1 X44.867 Y89.825 E48.8271
G1 X44.487 Y89.934 E48.84025
G1 X44.134 Y90.12 E48.85352
G1 X43.83 Y90.377 E48.86676
G1 X43.584 Y90.69 E48.88
G1 X43.41 Y91.048 E48.89324
G1 X43.315 Y91.433 E48.90643
G1 X43.3 Y91.831 E48.91968
G1 X43.369 Y92.222 E48.93288
G1 X43.518 Y92.591 E48.94612
G1 X43.741 Y92.922 E48.95939
G1 X44.028 Y93.197 E48.97261
G1 X44.365 Y93.407 E48.98582
G1 X44.736 Y93.543 E48.99896
G1 X45.132 Y93.599 E49.01227
G1 X45.529 Y93.571 E49.0255
G1 X45.91 Y93.462 E49.03868
G1 X46.263 Y93.275 E49.05197
G0 F6000 X46.038 Y92.942
;TYPE:WALL-OUTER
G1 F1200 X46.277 Y92.74 E49.06238
G1 X46.47 Y92.493 E49.0728
G1 X46.607 Y92.212 E49.0832
G1 X46.683 Y91.908 E49.09362
G1 X46.695 Y91.593 E49.10411
G1 X46.641 Y91.285 E49.11451
G1 X46.523 Y90.994 E49.12495
G1 X46.347 Y90.733 E49.13542
G1 X46.121 Y90.515 E49.14587
G1 X45.855 Y90.349 E49.1563
G1 X45.56 Y90.243 E49.16672
G1 X45.25 Y90.199 E49.17714
G1 X44.937 Y90.221 E49.18757
G1 X44.637 Y90.307 E49.19795
G1 X44.359 Y90.454 E49.20841
G1 X44.119 Y90.656 E49.21884
G1 X43.925 Y90.903 E49.22929
G1 X43.788 Y91.185 E49.23972
G1 X43.713 Y91.489 E49.25013
G1 X43.701 Y91.803 E49.26058
G1 X43.756 Y92.111 E49.27099
G1 X43.873 Y92.402 E49.28142
G1 X44.049 Y92.663 E49.29189
G1 X44.275 Y92.88 E49.30231
G1 X44.541 Y93.046 E49.31274
G1 X44.834 Y93.153 E49.32312
G1 X45.146 Y93.197 E49.3336
G1 X45.459 Y93.175 E49.34403
G1 X45.76 Y93.089 E49.35444
G1 X46.038 Y92.942 E49.3649
G0 F6000 X46.284 Y93.306
G1 F2700 E44.3649
G0 F6000 X43.691 Y93.685
G0 X43.694 Y141.32
G0 X46.262 Y141.066
G0 X46.872 Y142.823
G0 X46.935 Y143.181
G0 X46.833 Y143.898
G0 X46.262 Y144.88
;TYPE:WALL-INNER
G1 F2700 E49.3649
G1 F1200 X46.566 Y144.623 E49.37814
G1 X46.811 Y144.31 E49.39136
G1 X46.985 Y143.954 E49.40454
G1 X47.081 Y143.569 E49.41774
G1 X47.096 Y143.17 E49.43102
G1 X47.028 Y142.778 E49.44425
G1 X46.878 Y142.409 E49.4575
G1 X46.655 Y142.078 E49.47078
G1 X46.368 Y141.803 E49.484
G1 X46.031 Y141.592 E49.49722
G1 X45.657 Y141.457 E49.51045
G1 X45.264 Y141.401 E49.52365
G1 X44.867 Y141.429 E49.53689
G1 X44.486 Y141.538 E49.55007
G1 X44.133 Y141.725 E49.56335
G1 X43.83 Y141.981 E49.57655
G1 X43.584 Y142.294 E49.58979
G1 X43.41 Y142.652 E49.60303
G1 X43.315 Y143.037 E49.61622
G1 X43.3 Y143.435 E49.62946
G1 X43.369 Y143.826 E49.64267
G1 X43.518 Y144.195 E49.6559
G1 X43.741 Y144.526 E49.66918
G1 X44.028 Y144.802 E49.68242
G1 X44.365 Y145.012 E49.69563
G1 X44.737 Y145.148 E49.7088
G1 X45.133 Y145.203 E49.7221
G1 X45.528 Y145.175 E49.73527
G1 X45.909 Y145.066 E49.74845
G1 X46.262 Y144.88 E49.76172
G0 F6000 X46.037 Y144.546
;TYPE:WALL-OUTER
G1 F1200 X46.277 Y144.344 E49.77216
G1 X46.47 Y144.097 E49.78258
G1 X46.607 Y143.816 E49.79298
G1 X46.683 Y143.512 E49.8034
G1 X46.695 Y143.197 E49.81389
G1 X46.641 Y142.889 E49.82429
G1 X46.523 Y142.598 E49.83473
G1 X46.347 Y142.337 E49.8452
G1 X46.121 Y142.12 E49.85562
G1 X45.855 Y141.954 E49.86605
G1 X45.56 Y141.847 E49.87649
G1 X45.25 Y141.803 E49.8869
G1 X44.937 Y141.825 E49.89734
G1 X44.636 Y141.911 E49.90775
G1 X44.358 Y142.058 E49.91821
G1 X44.119 Y142.26 E49.92862
G1 X43.925 Y142.507 E49.93906
G1 X43.788 Y142.789 E49.94949
G1 X43.713 Y143.093 E49.9599
G1 X43.701 Y143.407 E49.97036
G1 X43.756 Y143.715 E49.98076
G1 X43.873 Y144.006 E49.99119
G1 X44.049 Y144.267 E50.00166
G1 X44.275 Y144.485 E50.01211
G1 X44.541 Y144.651 E50.02254
G1 X44.834 Y144.758 E50.03291
G1 X45.146 Y144.801 E50.04339
G1 X45.458 Y144.779 E50.05379
G1 X45.759 Y144.693 E50.0642
G1 X46.037 Y144.546 E50.07466
G0 F6000 X46.282 Y144.91
G1 F2700 E45.07466
G0 F6000 X109.25 Y144.79
G0 X109.25 Y146.665
G0 X107.323 Y136.835
G0 X107.323 Y138.67
G0 X109.25 Y138.5
;TYPE:WALL-INNER
G1 F2700 E50.07466
G1 F1200 X109.25 Y119.5 E50.7066
G1 X104.25 Y119.5 E50.8729
G1 X104.25 Y138.5 E51.50485
G1 X109.25 Y138.5 E51.67115
G0 F6000 X108.85 Y138.1
G1 F1200 X108.85 Y119.9 E52.27648
G1 X104.65 Y119.9 E52.41617
G1 X104.65 Y138.1 E53.02151
G1 X108.85 Y138.1 E53.1612
G0 F6000 X108.45 Y137.7
;TYPE:WALL-OUTER
G1 F1200 X108.45 Y120.3 E53.73993
G1 X105.05 Y120.3 E53.85301
G1 X105.05 Y137.7 E54.43174
G1 X108.45 Y137.7 E54.54482
G1 F2700 E49.54482
G0 F6000 X108.75 Y137.7
G0 X104.06 Y138.5
G0 X103.44 Y138.5
G0 X103.25 Y138.5
;TYPE:WALL-INNER
G1 F2700 E54.54482
G1 F1200 X103.25 Y119.5 E55.17677
G1 X98.25 Y119.5 E55.34307
G1 X98.25 Y138.5 E55.97501
G1 X103.25 Y138.5 E56.14131
G0 F6000 X102.85 Y138.1
G1 F1200 X102.85 Y119.9 E56.74664
G1 X98.65 Y119.9 E56.88634
G1 X98.65 Y138.1 E57.49167
G1 X102.85 Y138.1 E57.63136
G0 F6000 X102.45 Y137.7
;TYPE:WALL-OUTER
G1 F1200 X102.45 Y120.3 E58.21009
G1 X99.05 Y120.3 E58.32317
G1 X99.05 Y137.7 E58.9019
G1 X102.45 Y137.7 E59.01499
G1 F2700 E54.01499
G0 F6000 X102.75 Y137.7
G0 X98.06 Y138.5
G0 X97.44 Y138.5
G0 X97.25 Y138.5
;TYPE:WALL-INNER
G1 F2700 E59.01499
